!!!OTL: DAS GRAB IST TIEF UND STILLE
!!!ARE: Europa, Mitteleuropa, Deutschland
!!!SCT: B0777
!!!YEM: Copyright 1995, estate of Helmut Schaffrath.
**kern
*ICvox
*Ivox
*M4/4
*k[b-]
*F:
{4c
=1
4.f
8g
4a
4a
=2
2g
4f}
{4f
=3
4.b-
16a
16g
4f
4g
=4
2a
4r}
{4f
=5
4.a
8b-
4cc
4cc
=6
2b-
4a}
{4a
=7
4g
4f
4g
4e
=8
2f
4r}
==
!!!AGN: Trost - Lied, Tod, Klage, religioes
!!!ONB: ESAC (Essen Associative Code) Database: BOEHME
!!!AMT: simple quadruple
!!!AIN: vox
!!!EED: Helmut Schaffrath
!!!EEV: 1.0
*-
